X:1
T: Mrs. Stewart's Fancy
C:
R:Jig
Q:180
K:A
M:6/8
L:1/16
|:f2|e4c2 c2a2=g2|f2d2B2 B4f2|e2c2A2 A2c2e2|f6f4g2|
a2g2f2 e2d2c2|f2d2B2 B4fg|a2e2c2 d2c2B2|A6A4E2|
A4A2 A2c2B2|A2F2F2 F4E2|A2c2B2 A2c2e2|f6f4g2|
a2g2f2 e2d2c2|f2d2B2 B4fg|a2e2c2 d2B2b2|a6a4:|
E2|A4A2 A2c2B2|A2F2F2 F4E2|A2c2B2 A2c2e2|f6f4g2|
a2g2f2 e2d2c2|f2d2B2 B4fg|a2e2c2 d2B2b2|a6a4||
